X:1
T: Polska eft. August Forsbäck
S: eft. August Forsbäck
O: Snappertuna, Finland
B: Finlands Svenska Folkdiktning VI A1 Äldre dansmelodier
R: Polska
Z: Stefan Kuni 20.1 2014
L: 1/16
M:3/4
K: A
(ABcd e2)a2 (g2a2)|a2(gf e2)d2 c2A2|a2gf (e2f2) (c2e2)|1 d2B2 .A4 .E4:|2 d2B2 A4 A4||
|:A2>B2 B2B2 B2B2|B2>c2 .c2.c2 .c2.c2|A2d2 d2f2 ((3fgf)ed|
(c2ec) (ABcd) e2a2|a2gf e2fe c2A2|a2gf e2f2 c2e2|d2B2 A4A4:|

